Adwaita++/actions/22/go-previous-context.svg

<svg height="22" viewBox="0 0 22 22" width="22" xmlns="http://www.w3.org/2000/svg">
  <path d="m6 2-5.29296875 5.2929688-.70703125.7070312.70703125.7070312 5.29296875 5.2929688h10v-12zm3 2h1v1h-1c-.55222 0-1 .44771-1 1v1c0 .38251-.13928.73504-.375 1 .23572.26497.375.6175.375 1v1c0 .55222.44771 1 1 1h1v1h-1c-1.1045 0-2-.89548-2-2v-1c0-.27615-.22386-.5-.5-.5h-.5v-1h.5c.27614 0 .5-.22384.5-.5v-1c0-1.1045.89548-2 2-2zm2 0h1c1.1045 0 2 .89549 2 2v1c0 .27616.22386.5.5.5h.5v1h-.5c-.27614 0-.5.22385-.5.5v1c0 1.1045-.89549 2-2 2h-1v-1h1c.55229 0 1-.44778 1-1v-1c0-.3825.13928-.73503.375-1-.23572-.26496-.375-.61749-.375-1v-1c0-.55229-.44778-1-1-1h-1z" fill="#444" transform="translate(3 3)"/>
</svg>

<svg xmlns="http://www.w3.org/2000/svg" width="22" height="22" viewBox="0 0 22 22">
 <defs>
  <style id="current-color-scheme" type="text/css">
   .ColorScheme-Text { color:#444444; } .ColorScheme-Highlight { color:#4285f4; }
  </style>
 </defs>
 <path style="fill:currentColor" class="ColorScheme-Text" d="M 6 2 L 0.70703125 7.2929688 L 0 8 L 0.70703125 8.7070312 L 6 14 L 16 14 L 16 2 L 6 2 z M 9 4 L 10 4 L 10 5 L 9 5 C 8.44778 5 8 5.44771 8 6 L 8 7 C 8 7.38251 7.86072 7.73504 7.625 8 C 7.86072 8.26497 8 8.6175 8 9 L 8 10 C 8 10.55222 8.44771 11 9 11 L 10 11 L 10 12 L 9 12 C 7.8955 12 7 11.10452 7 10 L 7 9 C 7 8.72385 6.77614 8.5 6.5 8.5 L 6 8.5 L 6 7.5 L 6.5 7.5 C 6.77614 7.5 7 7.27616 7 7 L 7 6 C 7 4.8955 7.89548 4 9 4 z M 11 4 L 12 4 C 13.1045 4 14 4.89549 14 6 L 14 7 C 14 7.27616 14.22386 7.5 14.5 7.5 L 15 7.5 L 15 8.5 L 14.5 8.5 C 14.22386 8.5 14 8.72385 14 9 L 14 10 C 14 11.1045 13.10451 12 12 12 L 11 12 L 11 11 L 12 11 C 12.55229 11 13 10.55222 13 10 L 13 9 C 13 8.6175 13.13928 8.26497 13.375 8 C 13.13928 7.73504 13 7.38251 13 7 L 13 6 C 13 5.44771 12.55222 5 12 5 L 11 5 L 11 4 z" transform="translate(3 3)"/>
</svg>
